X:1
T:[ID 1-68b]
T:[ID 1-68b]
T:Bezeichnung standardisiert: Menuet Gruijtters (39); Menuet \"Ahnlich in anderer Quelle: Menuet (nr. 51) - Handschrift Spriet 1760 ca. (Anm. S. Wascher);
T:Urheber unbekannt Erstbeleg: 1760 (Datum in der schriftlichen Quelle) Datum in der hier transkribierten schriftlichen Quelle: vermutlich vor 1767
C:Urheber unbekannt
C:Erstbeleg: 1760 (Datum in der schriftlichen Quelle)
C:Datum in der hier transkribierten schriftlichen Quelle: vermutlich vor 1767
%%score ( 1 2 )
L:1/8
M:3/4
K:G
V:1 treble 
V:2 treble 
V:1
 GFGABc | d3 B d2 | edcBAG | F2 EF D2 |"^O)" B,G,CA,B,G, | A,2 GF G2 |"^O)" B,G,CA,B,G, | %7
 A,2 GF G2 | DcBAGF | G6 || B2 B2 B2 | A2 A2 G2 | efgfed |"^[sic]" c2 Bc A2 |"^O)" FDGEFD | %15
 E2"^[sic]" dc d2 |"^O)" FDGEFD | E2 d"^[sic]"c d2 | egfedc | d6 |"^O)" d2 gf g2 |"^O)" d2 gf g2 | %22
 ABcBAG | F2 EF D2 |"^[Notat bricht ab]" x6 | %25
V:2
 G2 GABc | x6 | x6 | x6 | x6 | x6 | x6 | x6 | x6 | x6 || x6 | x6 | x6 | x6 | x6 | x6 | x6 | x6 | %18
 x6 | x6 | x6 | x6 | x6 | x6 | x6 | %25

